Newaita/actions/22/edit-table-insert-column-right.svg

<svg height="22" viewBox="0 0 22 22" width="22" xmlns="http://www.w3.org/2000/svg"><g fill="#424242"><path d="m2.730469 7.902344v.910156h10.457031v-.910156zm0 0"/><path d="m2.273438 13.359375v.910156h10.914062v-.910156zm0 0"/><path d="m18.191406 1.992188c1.007813 0 1.820313.808593 1.820313 1.816406h-15.464844c-.503906 0-.910156.40625-.910156.910156v12.734375c0 .503906.40625.910156.910156.910156h8.640625v1.820313h-9.550781c-1.007813 0-1.816407-.8125-1.816407-1.820313v-14.554687c0-1.007813.808594-1.816406 1.816407-1.816406zm0 0"/><path d="m7.730469 18.820312h.910156v-15.917968h-.910156zm0 0"/></g><path d="m18.210938 3.792969h1.78125c.011718 0 .019531.007812.019531.015625v7.242187c0 .011719-.007813.019531-.019531.019531h-1.78125c-.011719 0-.019532-.007812-.019532-.019531v-7.242187c0-.007813.007813-.015625.019532-.015625zm0 0" fill="#f44336"/><path d="m13.199219 3.808594h.910156v7.261718h-.910156zm0 0" fill="#f44336"/><path d="m13.425781 7.988281-.238281.878907 6.152344 1.644531.234375-.878907zm0 0" fill="#f44336"/><path d="m13.425781 4.734375-.238281.878906 6.152344 1.644531.234375-.875zm0 0" fill="#f44336"/><path d="m16.828125 14.042969c-.25 0-.457031.203125-.457031.453125v3.640625c0 .25.207031.453125.457031.453125s.453125-.203125.453125-.453125v-3.640625c0-.25-.203125-.453125-.453125-.453125zm0 0" fill="#424242"/><path d="m14.554688 16.316406c0 .25.203124.457032.453124.457032h3.640626c.25 0 .453124-.207032.453124-.457032s-.203124-.453125-.453124-.453125h-3.640626c-.25 0-.453124.203125-.453124.453125zm0 0" fill="#424242"/></svg>

<?xml version="1.0" encoding="UTF-8"?>
<svg xmlns="http://www.w3.org/2000/svg" xmlns:xlink="http://www.w3.org/1999/xlink" width="22px" height="22px" viewBox="0 0 22 22" version="1.1">
<g id="surface1">
<path style=" stroke:none;fill-rule:nonzero;fill:rgb(25.882354%,25.882354%,25.882354%);fill-opacity:1;" d="M 2.730469 7.902344 L 2.730469 8.8125 L 13.1875 8.8125 L 13.1875 7.902344 Z M 2.730469 7.902344 "/>
<path style=" stroke:none;fill-rule:nonzero;fill:rgb(25.882354%,25.882354%,25.882354%);fill-opacity:1;" d="M 2.273438 13.359375 L 2.273438 14.269531 L 13.1875 14.269531 L 13.1875 13.359375 Z M 2.273438 13.359375 "/>
<path style=" stroke:none;fill-rule:nonzero;fill:rgb(25.882354%,25.882354%,25.882354%);fill-opacity:1;" d="M 18.191406 1.992188 C 19.199219 1.992188 20.011719 2.800781 20.011719 3.808594 L 4.546875 3.808594 C 4.042969 3.808594 3.636719 4.214844 3.636719 4.71875 L 3.636719 17.453125 C 3.636719 17.957031 4.042969 18.363281 4.546875 18.363281 L 13.1875 18.363281 L 13.1875 20.183594 L 3.636719 20.183594 C 2.628906 20.183594 1.820312 19.371094 1.820312 18.363281 L 1.820312 3.808594 C 1.820312 2.800781 2.628906 1.992188 3.636719 1.992188 Z M 18.191406 1.992188 "/>
<path style=" stroke:none;fill-rule:nonzero;fill:rgb(25.882354%,25.882354%,25.882354%);fill-opacity:1;" d="M 7.730469 18.820312 L 8.640625 18.820312 L 8.640625 2.902344 L 7.730469 2.902344 Z M 7.730469 18.820312 "/>
<path style=" stroke:none;fill-rule:nonzero;fill:rgb(95.686275%,26.274511%,21.176471%);fill-opacity:1;" d="M 18.210938 3.792969 L 19.992188 3.792969 C 20.003906 3.792969 20.011719 3.800781 20.011719 3.808594 L 20.011719 11.050781 C 20.011719 11.0625 20.003906 11.070312 19.992188 11.070312 L 18.210938 11.070312 C 18.199219 11.070312 18.191406 11.0625 18.191406 11.050781 L 18.191406 3.808594 C 18.191406 3.800781 18.199219 3.792969 18.210938 3.792969 Z M 18.210938 3.792969 "/>
<path style=" stroke:none;fill-rule:nonzero;fill:rgb(95.686275%,26.274511%,21.176471%);fill-opacity:1;" d="M 13.199219 3.808594 L 14.109375 3.808594 L 14.109375 11.070312 L 13.199219 11.070312 Z M 13.199219 3.808594 "/>
<path style=" stroke:none;fill-rule:nonzero;fill:rgb(95.686275%,26.274511%,21.176471%);fill-opacity:1;" d="M 13.425781 7.988281 L 13.1875 8.867188 L 19.339844 10.511719 L 19.574219 9.632812 Z M 13.425781 7.988281 "/>
<path style=" stroke:none;fill-rule:nonzero;fill:rgb(95.686275%,26.274511%,21.176471%);fill-opacity:1;" d="M 13.425781 4.734375 L 13.1875 5.613281 L 19.339844 7.257812 L 19.574219 6.382812 Z M 13.425781 4.734375 "/>
<path style=" stroke:none;fill-rule:nonzero;fill:rgb(25.882354%,25.882354%,25.882354%);fill-opacity:1;" d="M 16.828125 14.042969 C 16.578125 14.042969 16.371094 14.246094 16.371094 14.496094 L 16.371094 18.136719 C 16.371094 18.386719 16.578125 18.589844 16.828125 18.589844 C 17.078125 18.589844 17.28125 18.386719 17.28125 18.136719 L 17.28125 14.496094 C 17.28125 14.246094 17.078125 14.042969 16.828125 14.042969 Z M 16.828125 14.042969 "/>
<path style=" stroke:none;fill-rule:nonzero;fill:rgb(25.882354%,25.882354%,25.882354%);fill-opacity:1;" d="M 14.554688 16.316406 C 14.554688 16.566406 14.757812 16.773438 15.007812 16.773438 L 18.648438 16.773438 C 18.898438 16.773438 19.101562 16.566406 19.101562 16.316406 C 19.101562 16.066406 18.898438 15.863281 18.648438 15.863281 L 15.007812 15.863281 C 14.757812 15.863281 14.554688 16.066406 14.554688 16.316406 Z M 14.554688 16.316406 "/>
</g>
</svg>
